pix_core/a/download_all.svg

<!DOCTYPE svg PUBLIC "-//W3C//DTD SVG 1.1//EN" "http://www.w3.org/Graphics/SVG/1.1/DTD/svg11.dtd" [
	<!ENTITY ns_flows "http://ns.adobe.com/Flows/1.0/">
]><svg xmlns="http://www.w3.org/2000/svg" width="16" height="16" viewBox="0 0 16 16" preserveAspectRatio="xMinYMid meet" overflow="visible"><path d="M16 9v6c0 .5-.5 1-1 1h-14c-.5 0-1-.5-1-1v-6c0-.5.5-1 1-1h1c.5 0 1 .5 1 1v4h10v-4c0-.5.5-1 1-1h1c.5 0 1 .5 1 1zm-3.6-3.9l-.7-.7c-.4-.4-1-.4-1.4 0l-.8.8v-4.2c0-.5-.4-1-1-1h-1c-.5 0-1 .5-1 1v4.2l-.8-.8c-.4-.4-1-.4-1.4 0l-.7.7c-.4.4-.4 1 0 1.4l3.7 3.7c.2.2.5.3.7.3.3 0 .5-.1.7-.3l3.7-3.7c.4-.3.4-1 0-1.4z" fill="#888"/></svg>

<?xml version="1.0" encoding="utf-8"?>
<!-- Generator: Adobe Illustrator 15.1.0, SVG Export Plug-In  -->
<!DOCTYPE svg PUBLIC "-//W3C//DTD SVG 1.1//EN" "http://www.w3.org/Graphics/SVG/1.1/DTD/svg11.dtd" [
	<!ENTITY ns_flows "http://ns.adobe.com/Flows/1.0/">
]>
<svg version="1.1"
	 xmlns="http://www.w3.org/2000/svg" xmlns:xlink="http://www.w3.org/1999/xlink" xmlns:a="http://ns.adobe.com/AdobeSVGViewerExtensions/3.0/"
	 x="0px" y="0px" width="16px" height="16px" viewBox="0 0 16 16" style="overflow:visible;enable-background:new 0 0 16 16;"
	 xml:space="preserve" preserveAspectRatio="xMinYMid meet">
<defs>
</defs>
<path style="fill:#29a1c4;" d="M16,9v6c0,0.5-0.5,1-1,1h-1H2H1c-0.5,0-1-0.5-1-1V9c0-0.5,0.5-1,1-1h1c0.5,0,1,0.5,1,1v4h10V9
	c0-0.5,0.5-1,1-1h1C15.5,8,16,8.5,16,9z M12.4,5.1l-0.7-0.7c-0.4-0.4-1-0.4-1.4,0L9.5,5.2V1c0-0.5-0.4-1-1-1h-1c-0.5,0-1,0.5-1,1
	v4.2L5.7,4.4C5.3,4,4.7,4,4.3,4.4L3.6,5.1c-0.4,0.4-0.4,1,0,1.4l3.7,3.7c0.2,0.2,0.5,0.3,0.7,0.3c0.3,0,0.5-0.1,0.7-0.3l3.7-3.7
	C12.8,6.2,12.8,5.5,12.4,5.1z"/>
</svg>
